X:84
T:Tis Good, Lord, To Be Here
%%stretchlast false
M:2/4
L:1/4
K:C clef=C1
"^I"[CEGc] "^V¹"[B,DGd] | "^IV¹"[A,Ccf]/ "^ii7²"[A,Dcf]/ "^I²"[G,Ece]/ [G,Fce]/ | "^V"[G,GBd]/ "^V7"[G,FBd]/ "^I"[CEc] | "^V¹"[B,Ddg] "^vi¹"[CEca] | "^vi"[A,Eec']/ [A,^Fec']/ "^V¹"[B,Gdb]/ "^V"[CGdb]/ | "^II"[D^Fda]/ "^II7"[D^Fca]/ "^V"[G,GBg] | "^I"[CGce] "^IV²"[CAcf] | [CFca]/ "^vi¹"[CEca]/ "^V¹"[B,Ddg] | "^V7"[G,GBf] "^I"[CGce]/ "^vi"[A,Ace]/ | "^II7"[DAc^f] "^V"[G,GBg] | "^I¹"[E,Gc] "^ii¹"[F,FAd] | "^ii"[D,FAf]/ [D,FBf]/ "^I¹"[E,Gce]/ "^I"[F,Gce]/ | "^V"[G,GBd]/ "^V7"[G,FBd]/ "^I"[CEc] |]
